X: 23918
T: Loch Of Lumgair
R: jig
M: 6/8
K: Dmajor
|:A|F>Ad f>ed|g2 G B>AG|F>Ad d>ef|f3 e2 A|
F>Ad f2 d|g2 B e>dB|c>ea g2 c|d3 d2:|
|:f/g/|a>fd d>AF|G2 d g>fe|f>af d>cd|
[1 e>cA A2 f/g/|a>fd d>AF|G>Bd g3|f>af gec|d3- d2:|
[2 e2 c AGE|F>Ad f2 d|g2 B e>dB|cea g2 c|d3 d2||

